public/icons/swift1.svg

<svg width="64" height="64" viewBox="0 0 64 64" fill="none" xmlns="http://www.w3.org/2000/svg">
<path d="M63.9955 17.7267C63.9918 17.0831 63.9846 16.4397 63.9669 15.7953C63.9294 14.3936 63.8465 12.9791 63.5974 11.5923C63.3446 10.184 62.9313 8.87452 62.28 7.59518C61.6406 6.3388 60.8048 5.1891 59.8078 4.1921C58.8111 3.1951 57.6614 2.35942 56.4044 1.71975C55.1262 1.0692 53.8165 0.656048 52.4094 0.403242C51.0219 0.153345 49.6074 0.0710157 48.2046 0.033084C47.5605 0.0156267 46.9171 0.008299 46.2732 0.00431184C45.509 1.39068e-06 44.7442 1.36731e-06 43.9802 1.34396e-06L27.0385 8.2625e-07L20.0199 6.11775e-07C19.2551 5.88405e-07 18.4912 5.65061e-07 17.7272 0.00441872C17.0831 0.00840585 16.4389 0.0157335 15.7958 0.0331907C15.4452 0.0426737 15.0938 0.0549583 14.7421 0.0718767C13.6874 0.12274 12.631 0.215953 11.5909 0.403348C10.5356 0.593007 9.53492 0.872753 8.56141 1.27524C8.23694 1.40929 7.91538 1.55714 7.59577 1.71975C6.65308 2.1995 5.77052 2.78949 4.96781 3.47506C4.70024 3.70362 4.4415 3.94274 4.19236 4.19199C3.19514 5.18899 2.35935 6.33869 1.72001 7.59507C1.0687 8.8744 0.65598 10.1839 0.402958 11.5922C0.154031 12.979 0.0712704 14.3935 0.0335541 15.7952C0.0158814 16.4396 0.00844588 17.083 0.00424319 17.7266C-0.00060606 18.4911 4.04804e-05 19.2556 4.0457e-05 20.0199L4.01382e-05 30.4531L3.97249e-05 43.9798C3.97015e-05 44.7448 -0.000714647 45.5086 0.00424232 46.2736C0.00844497 46.9172 0.0158804 47.5606 0.0335532 48.2039C0.0712693 49.6064 0.153922 51.0212 0.402957 52.4073C0.655978 53.8152 1.0687 55.1259 1.72001 56.4049C2.35935 57.6616 3.19514 58.811 4.19236 59.8075C5.18882 60.805 6.33884 61.6405 7.59587 62.2806C8.87424 62.9313 10.1839 63.3439 11.5912 63.5967C12.9779 63.8463 14.3934 63.9293 15.7959 63.9668C16.439 63.9839 17.0832 63.9916 17.7273 63.9952C18.4913 64.0007 19.2552 64 20.02 64L43.9802 64C44.7442 64 45.509 64.0007 46.2731 63.9952C46.917 63.9916 47.5604 63.9839 48.2045 63.9668C49.6073 63.9293 51.0218 63.8462 52.4093 63.5967C53.8164 63.3439 55.1261 62.9312 56.4043 62.2806C57.6613 61.6407 58.8109 60.805 59.8077 59.8075C60.8047 58.8109 61.6406 57.6616 62.2799 56.4049C62.9312 55.1259 63.3444 53.8153 63.5972 52.4073C63.8464 51.0212 63.9293 49.6064 63.9668 48.2039C63.9844 47.5606 63.9915 46.9173 63.9954 46.2736C64.0004 45.5086 63.9999 44.7448 63.9999 43.9798L63.9999 20.0199C64.0001 19.2556 64.0004 18.4911 63.9955 17.7267Z" fill="#F05138"/>
<path d="M50.7125 39.5092C50.711 39.5073 50.7096 39.5059 50.708 39.504C50.7788 39.2631 50.8518 39.0236 50.9138 38.7766C53.5701 28.1936 47.0871 15.6815 36.1165 9.09357C40.924 15.6108 43.0497 23.5047 41.1611 30.4081C40.9927 31.0238 40.7902 31.6148 40.5664 32.1891C40.3235 32.0295 40.0175 31.8484 39.6065 31.6218C39.6065 31.6218 28.6936 24.8838 16.8659 12.9661C16.5556 12.6532 23.173 22.4242 30.6829 30.3585C27.1447 28.3728 17.2842 21.1984 11.0418 15.4851C11.8087 16.7641 12.7209 17.9957 13.7236 19.1814C18.9366 25.7924 25.7349 33.9493 33.8795 40.2129C28.157 43.7149 20.071 43.9872 12.0201 40.2165C10.0287 39.2833 8.15673 38.1573 6.42383 36.878C9.83176 42.3291 15.0805 47.0322 21.4686 49.7778C29.0868 53.0517 36.6624 52.8297 42.3048 49.8315L42.3004 49.8379C42.3261 49.8217 42.3589 49.8039 42.3856 49.7874C42.6173 49.6628 42.8473 49.536 43.0721 49.4021C45.7831 47.9949 51.1377 46.5673 54.0118 52.1594C54.7157 53.528 56.2114 46.2753 50.7125 39.5092Z" fill="white"/>
</svg>

<svg xmlns="http://www.w3.org/2000/svg" width="64" height="64" fill="none"><path fill="#F05138" d="M63.995 17.727a88.924 88.924 0 0 0-.028-1.932c-.038-1.401-.12-2.816-.37-4.203-.252-1.408-.666-2.717-1.317-3.997a13.433 13.433 0 0 0-5.876-5.875C55.126 1.07 53.816.656 52.41.403c-1.387-.25-2.802-.332-4.204-.37a92.364 92.364 0 0 0-1.932-.029C45.51 0 44.744 0 43.98 0H20.02c-.764 0-1.528 0-2.292.004-.644.004-1.288.012-1.931.03-.35.009-.702.021-1.054.038-1.055.05-2.111.144-3.151.331-1.055.19-2.056.47-3.03.872a13.47 13.47 0 0 0-4.369 2.917A13.427 13.427 0 0 0 1.72 7.595C1.069 8.875.656 10.184.403 11.592c-.249 1.387-.332 2.801-.37 4.203a92.43 92.43 0 0 0-.029 1.932C0 18.49 0 19.256 0 20.02v23.96c0 .765 0 1.529.004 2.294.004.643.012 1.287.03 1.93.037 1.402.12 2.817.369 4.203.253 1.408.666 2.719 1.317 3.998a13.41 13.41 0 0 0 2.472 3.402 13.422 13.422 0 0 0 3.404 2.474c1.278.65 2.588 1.063 3.995 1.316 1.387.25 2.802.332 4.205.37.643.017 1.287.025 1.931.028.764.006 1.528.005 2.293.005h23.96c.764 0 1.529 0 2.293-.005a92.159 92.159 0 0 0 1.931-.028c1.403-.038 2.818-.12 4.205-.37 1.407-.253 2.717-.666 3.995-1.316a13.423 13.423 0 0 0 5.876-5.876c.651-1.28 1.064-2.59 1.317-3.998.25-1.386.332-2.8.37-4.203.017-.643.025-1.287.028-1.93.005-.765.005-1.53.005-2.294V20.02c0-.764 0-1.529-.005-2.293Z"/><path fill="#fff" d="m50.712 39.51-.004-.006c.07-.24.144-.48.206-.727C53.57 28.194 47.087 15.68 36.117 9.094c4.807 6.517 6.933 14.41 5.044 21.314a17.91 17.91 0 0 1-.595 1.781c-.242-.16-.549-.34-.96-.567 0 0-10.912-6.738-22.74-18.656-.31-.313 6.307 9.458 13.817 17.392-3.538-1.985-13.399-9.16-19.641-14.873.767 1.28 1.679 2.51 2.682 3.696 5.213 6.611 12.01 14.768 20.156 21.032-5.723 3.502-13.809 3.774-21.86.004a33.023 33.023 0 0 1-5.596-3.339c3.408 5.451 8.657 10.154 15.045 12.9 7.618 3.274 15.193 3.052 20.836.053l-.005.007.086-.05c.231-.125.461-.252.686-.386 2.711-1.407 8.066-2.835 10.94 2.757.704 1.369 2.2-5.884-3.3-12.65Z"/></svg>
